front/public/static/landing/logos/gray/kyriba.svg

<svg fill="none" height="240" viewBox="0 0 600 240" width="600" xmlns="http://www.w3.org/2000/svg" xmlns:xlink="http://www.w3.org/1999/xlink"><mask id="a" height="120" maskUnits="userSpaceOnUse" width="354" x="123" y="60"><path d="m476.073 60h-352.143v120h352.143z" fill="#fff"/></mask><g mask="url(#a)"><path d="m183.927 170c26.825 0 48.571-21.746 48.571-48.571 0-26.8256-21.746-48.5718-48.571-48.5718s-48.572 21.7462-48.572 48.5718c0 26.825 21.747 48.571 48.572 48.571z" fill="#fff"/><g fill="#364153"><path d="m365.553 115.122c-6.698 0-8.874 6.008-8.874 14.072l.13 15.477c0 .687-.535 1.24-1.215 1.24h-4.754c-.665 0-1.215-.556-1.215-1.224v-34.497c0-.669.553-1.225 1.215-1.225h4.754c.665 0 1.215.556 1.215 1.225v5.877c1.67-4.913 4.461-7.102 9.619-7.102h5.452c.666 0 1.214.556 1.214 1.225v3.705c0 .669-.55 1.225-1.214 1.225z"/><path d="m303.57 94.1978h5.629c1.055 0 1.605 1.2573.892 2.0568l-17.956 19.8184 20.244 27.901c.585.817 0 1.942-.99 1.942h-6.294c-.39 0-.763-.196-.99-.521l-17.097-24.228-9.764 10.626v12.882c0 .669-.553 1.226-1.218 1.226h-4.753c-.666 0-1.218-.554-1.218-1.226v-49.2521c0-.669.552-1.2251 1.218-1.2251h4.753c.665 0 1.218.5561 1.218 1.2251v23.9651c0 1.698-.518 3.918-1.103 5.616h.145c.585-1.55 1.688-3.542 2.856-4.947l22.63-25.0601c.455-.5059 1.118-.7991 1.798-.7991z"/><path d="m340.037 108.975h5.076c.86 0 1.443.882 1.136 1.681l-16.059 40.487c-2.935 8.194-8.954 10.334-13.058 10.334h-5.239c-.665 0-1.217-.554-1.217-1.225v-3.462c0-.669.552-1.225 1.217-1.225h2.531c1.833 0 6.684-.962 8.224-5.093l1.916-5.91-13.431-33.926c-.324-.799.276-1.681 1.136-1.681h5.078c.503 0 .958.311 1.136.784l9.164 23.444c.583 1.699.958 3.77.958 5.469h.145c0-1.779.292-3.77.875-5.469l9.31-23.459c.177-.458.632-.766 1.135-.766z"/><path d="m376.695 99.2569v-3.8355c0-.6687.552-1.2252 1.215-1.2252h4.98c.668 0 1.219.5565 1.219 1.2252v3.8355c0 .669-.555 1.2251-1.219 1.2251h-4.98c-.667 0-1.215-.5561-1.215-1.2251zm7.268 10.9381v34.479c0 .669-.555 1.225-1.219 1.225h-4.691c-.664 0-1.215-.554-1.215-1.225v-34.479c0-.669.555-1.225 1.215-1.225h4.691c.664 0 1.219.554 1.219 1.225z"/><path d="m412.998 108.53c10.863.065 17.388 6.123 17.388 18.904 0 12.782-6.536 18.905-17.388 18.905-4.917 0-10.872-2.14-14.247-5.534-1.166-1.175-1.976-3.33-2.497-4.881l-.146.083c.521 1.551.96 3.69.96 5.389v3.282c0 .669-.555 1.225-1.219 1.225h-4.755c-.664 0-1.215-.554-1.215-1.225v-49.2529c0-.669.551-1.2251 1.215-1.2251h4.755c.664 0 1.219.5561 1.219 1.2251v18.3509c0 1.698-.439 3.77-.96 5.469h.146c.517-1.551 1.312-3.691 2.497-4.88 3.375-3.543 9.394-5.828 14.247-5.828zm10.267 18.904c0-8.57-3.892-12.701-12.701-12.929-6.454 0-13.493 4.88-13.493 12.929 0 8.05 7.039 12.636 13.493 12.636 9.101 0 12.701-3.918 12.701-12.636z"/><path d="m472.642 139.916h-.034c-1.537 0-2.201-.521-2.201-2.368v-14.334c0-10.923-8.891-14.466-17.846-14.466-7.59 0-15.506 2.856-17.179 10.858-.146.702.326 1.403 1.039 1.486l4.219.571c.6.083 1.2-.278 1.331-.864 1.166-4.848 5.302-6.221 10.59-6.221 6.832 0 10.432 2.074 10.657 7.754 0 2.888-7.121 2.595-14.388 2.743-7.347.213-14.682 2.433-14.682 10.334 0 4.211 2.794 7.313 6.604 9.094 3.743 1.764 7.039 1.616 7.931 1.616 5.434 0 12.619-2.22 14.535-9.307v3.249c0 3.249 2.415 5.827 6.162 5.827h3.262c.664 0 1.215-.538 1.215-1.225v-3.527c0-.669-.555-1.225-1.215-1.225zm-9.424-7.085c0 3.019-2.433 5.306-5.662 6.644-3.225 1.323-5.869 1.468-7.264 1.468-3.004 0-8.809-1.029-8.809-5.682 0-8.931 15.638-3.542 21.735-7.313z"/><path clip-rule="evenodd" d="m243.706 120.001c0 33.137-26.813 60-59.888 60s-59.888-26.863-59.888-60c0-33.1372 26.813-60.0003 59.888-60.0003s59.888 26.8631 59.888 60.0003zm-52.818 37.945c.597 1.252 1.841 1.984 3.14 1.984.503 0 1.014-.111 1.497-.342 1.733-.829 2.467-2.909 1.64-4.645l-12.272-25.744c-2.794-5.86-2.794-12.582.001-18.441l12.271-25.7298c.827-1.7362.093-3.816-1.64-4.6451-1.731-.8291-3.808-.0941-4.636 1.6421l-12.271 25.7298c-1.809 3.793-2.765 8.019-2.765 12.223s.954 8.431 2.763 12.224zm-17.176 2.013c-1.587-.001-3.019-1.096-3.386-2.711l-6.411-28.17c-1.355-5.952-1.354-12.246.002-18.197l6.409-28.1283c.428-1.8757 2.292-3.0498 4.164-2.6212s3.044 2.2957 2.616 4.1715l-6.409 28.128c-1.125 4.939-1.125 10.159-.003 15.098l6.412 28.17c.427 1.876-.745 3.745-2.617 4.172-.26.059-.521.088-.777.088zm-20.3-14.324c-1.921 0-3.478-1.56-3.478-3.485v-44.3429c0-1.9241 1.557-3.4841 3.478-3.4841s3.477 1.56 3.477 3.4841v44.3429c0 1.925-1.556 3.485-3.477 3.485zm60.917-.001c-.713 0-1.433-.219-2.053-.673l-17.241-12.656c-3.965-2.911-6.239-7.403-6.239-12.326 0-4.925 2.274-9.416 6.239-12.327l17.241-12.6555c1.549-1.137 3.726-.8014 4.86.7511 1.135 1.5529.8 3.7328-.75 4.8694l-17.241 12.656c-2.157 1.583-3.394 4.028-3.394 6.706 0 2.677 1.237 5.122 3.394 6.705l17.241 12.656c1.55 1.137 1.885 3.317.75 4.87-.681.931-1.737 1.424-2.807 1.424z" fill-rule="evenodd"/></g></g></svg>

<svg width="600" height="240" viewBox="0 0 600 240" fill="none" xmlns="http://www.w3.org/2000/svg">
<mask id="mask0_1904_3462" style="mask-type:luminance" maskUnits="userSpaceOnUse" x="123" y="60" width="354" height="120">
<path d="M476.073 60H123.93V180H476.073V60Z" fill="white"/>
</mask>
<g mask="url(#mask0_1904_3462)">
<path d="M183.927 170C210.752 170 232.498 148.254 232.498 121.429C232.498 94.6034 210.752 72.8572 183.927 72.8572C157.102 72.8572 135.355 94.6034 135.355 121.429C135.355 148.254 157.102 170 183.927 170Z" fill="white"/>
<path d="M365.553 115.122C358.855 115.122 356.679 121.13 356.679 129.194L356.809 144.671C356.809 145.358 356.274 145.911 355.594 145.911H350.84C350.175 145.911 349.625 145.355 349.625 144.687V110.19C349.625 109.521 350.178 108.965 350.84 108.965H355.594C356.259 108.965 356.809 109.521 356.809 110.19V116.067C358.479 111.154 361.27 108.965 366.428 108.965H371.88C372.546 108.965 373.094 109.521 373.094 110.19V113.895C373.094 114.564 372.544 115.12 371.88 115.12L365.553 115.122Z" fill="#364153"/>
<path d="M303.57 94.1978H309.199C310.254 94.1978 310.804 95.4551 310.091 96.2546L292.135 116.073L312.379 143.974C312.964 144.791 312.379 145.916 311.389 145.916H305.095C304.705 145.916 304.332 145.72 304.105 145.395L287.008 121.167L277.244 131.793V144.675C277.244 145.344 276.691 145.901 276.026 145.901H271.273C270.607 145.901 270.055 145.347 270.055 144.675V95.4229C270.055 94.7539 270.607 94.1978 271.273 94.1978H276.026C276.691 94.1978 277.244 94.7539 277.244 95.4229V119.388C277.244 121.086 276.726 123.306 276.141 125.004H276.286C276.871 123.454 277.974 121.462 279.142 120.057L301.772 94.9969C302.227 94.491 302.89 94.1978 303.57 94.1978Z" fill="#364153"/>
<path d="M340.037 108.975H345.113C345.973 108.975 346.556 109.857 346.249 110.656L330.19 151.143C327.255 159.337 321.236 161.477 317.132 161.477H311.893C311.228 161.477 310.676 160.923 310.676 160.252V156.79C310.676 156.121 311.228 155.565 311.893 155.565H314.424C316.257 155.565 321.108 154.603 322.648 150.472L324.564 144.562L311.133 110.636C310.809 109.837 311.409 108.955 312.269 108.955H317.347C317.85 108.955 318.305 109.266 318.483 109.739L327.647 133.183C328.23 134.882 328.605 136.953 328.605 138.652H328.75C328.75 136.873 329.042 134.882 329.625 133.183L338.935 109.724C339.112 109.266 339.567 108.958 340.07 108.958L340.037 108.975Z" fill="#364153"/>
<path d="M376.695 99.2569V95.4214C376.695 94.7527 377.247 94.1962 377.91 94.1962H382.89C383.558 94.1962 384.109 94.7527 384.109 95.4214V99.2569C384.109 99.9259 383.554 100.482 382.89 100.482H377.91C377.243 100.482 376.695 99.9259 376.695 99.2569ZM383.963 110.195V144.674C383.963 145.343 383.408 145.899 382.744 145.899H378.053C377.389 145.899 376.838 145.345 376.838 144.674V110.195C376.838 109.526 377.393 108.97 378.053 108.97H382.744C383.408 108.97 383.963 109.524 383.963 110.195Z" fill="#364153"/>
<path d="M412.998 108.53C423.861 108.595 430.386 114.653 430.386 127.434C430.386 140.216 423.85 146.339 412.998 146.339C408.081 146.339 402.126 144.199 398.751 140.805C397.585 139.63 396.775 137.475 396.254 135.924L396.108 136.007C396.629 137.558 397.068 139.697 397.068 141.396V144.678C397.068 145.347 396.513 145.903 395.849 145.903H391.094C390.43 145.903 389.879 145.349 389.879 144.678V95.4251C389.879 94.7561 390.43 94.2 391.094 94.2H395.849C396.513 94.2 397.068 94.7561 397.068 95.4251V113.776C397.068 115.474 396.629 117.546 396.108 119.245H396.254C396.771 117.694 397.566 115.554 398.751 114.365C402.126 110.822 408.145 108.537 412.998 108.537V108.53ZM423.265 127.434C423.265 118.864 419.373 114.733 410.564 114.505C404.11 114.505 397.071 119.385 397.071 127.434C397.071 135.484 404.11 140.07 410.564 140.07C419.665 140.07 423.265 136.152 423.265 127.434Z" fill="#364153"/>
<path d="M472.642 139.916H472.608C471.071 139.916 470.407 139.395 470.407 137.548V123.214C470.407 112.291 461.516 108.748 452.561 108.748C444.971 108.748 437.055 111.604 435.382 119.606C435.236 120.308 435.708 121.009 436.421 121.092L440.64 121.663C441.24 121.746 441.84 121.385 441.971 120.799C443.137 115.951 447.273 114.578 452.561 114.578C459.393 114.578 462.993 116.652 463.218 122.332C463.218 125.22 456.097 124.927 448.83 125.075C441.483 125.288 434.148 127.508 434.148 135.409C434.148 139.62 436.942 142.722 440.752 144.503C444.495 146.267 447.791 146.119 448.683 146.119C454.117 146.119 461.302 143.899 463.218 136.812V140.061C463.218 143.31 465.633 145.888 469.38 145.888H472.642C473.306 145.888 473.857 145.35 473.857 144.663V141.136C473.857 140.467 473.302 139.911 472.642 139.911V139.916ZM463.218 132.831C463.218 135.85 460.785 138.137 457.556 139.475C454.331 140.798 451.687 140.943 450.292 140.943C447.288 140.943 441.483 139.914 441.483 135.261C441.483 126.33 457.121 131.719 463.218 127.948V132.831Z" fill="#364153"/>
<path fill-rule="evenodd" clip-rule="evenodd" d="M243.706 120.001C243.706 153.138 216.893 180.001 183.818 180.001C150.743 180.001 123.93 153.138 123.93 120.001C123.93 86.8638 150.743 60.0007 183.818 60.0007C216.893 60.0007 243.706 86.8638 243.706 120.001ZM190.888 157.946C191.485 159.198 192.729 159.93 194.028 159.93C194.531 159.93 195.042 159.819 195.525 159.588C197.258 158.759 197.992 156.679 197.165 154.943L184.893 129.199C182.099 123.339 182.099 116.617 184.894 110.758L197.165 85.0282C197.992 83.292 197.258 81.2122 195.525 80.3831C193.794 79.554 191.717 80.289 190.889 82.0252L178.618 107.755C176.809 111.548 175.853 115.774 175.853 119.978C175.853 124.182 176.807 128.409 178.616 132.202L190.888 157.946ZM173.712 159.959C172.125 159.958 170.693 158.863 170.326 157.248L163.915 129.078C162.56 123.126 162.561 116.832 163.917 110.881L170.326 82.7527C170.754 80.877 172.618 79.7029 174.49 80.1315C176.362 80.5601 177.534 82.4272 177.106 84.303L170.697 112.431C169.572 117.37 169.572 122.59 170.694 127.529L177.106 155.699C177.533 157.575 176.361 159.444 174.489 159.871C174.229 159.93 173.968 159.959 173.712 159.959ZM153.412 145.635C151.491 145.635 149.934 144.075 149.934 142.15V97.8071C149.934 95.883 151.491 94.323 153.412 94.323C155.333 94.323 156.889 95.883 156.889 97.8071V142.15C156.889 144.075 155.333 145.635 153.412 145.635ZM214.329 145.634C213.616 145.634 212.896 145.415 212.276 144.961L195.035 132.305C191.07 129.394 188.796 124.902 188.796 119.979C188.796 115.054 191.07 110.563 195.035 107.652L212.276 94.9965C213.825 93.8595 216.002 94.1951 217.136 95.7476C218.271 97.3005 217.936 99.4804 216.386 100.617L199.145 113.273C196.988 114.856 195.751 117.301 195.751 119.979C195.751 122.656 196.988 125.101 199.145 126.684L216.386 139.34C217.936 140.477 218.271 142.657 217.136 144.21C216.455 145.141 215.399 145.634 214.329 145.634Z" fill="#364153"/>
</g>
</svg>
